icons/solid/compass.svg

<svg width="24" height="24" viewBox="0 0 24 24" fill="none" xmlns="http://www.w3.org/2000/svg">
<path fill-rule="evenodd" clip-rule="evenodd" d="M12 2C6.47715 2 2 6.47715 2 12C2 17.5228 6.47715 22 12 22C17.5228 22 22 17.5228 22 12C22 6.47715 17.5228 2 12 2ZM17.1913 8.07358C17.3111 7.71424 17.2176 7.31808 16.9497 7.05024C16.6819 6.78241 16.2857 6.68889 15.9264 6.80867L9.56244 8.92999C9.26384 9.02952 9.02952 9.26384 8.92999 9.56244L6.80867 15.9264C6.68889 16.2857 6.78241 16.6819 7.05024 16.9497C7.31808 17.2176 7.71424 17.3111 8.07358 17.1913L14.4375 15.07C14.7361 14.9705 14.9705 14.7361 15.07 14.4375L17.1913 8.07358ZM12 13C12.5523 13 13 12.5523 13 12C13 11.4477 12.5523 11 12 11C11.4477 11 11 11.4477 11 12C11 12.5523 11.4477 13 12 13Z" fill="currentColor"/>
</svg>

<svg width="24" height="24" fill="none" xmlns="http://www.w3.org/2000/svg"><path fill-rule="evenodd" clip-rule="evenodd" d="M12 2C6.477 2 2 6.477 2 12s4.477 10 10 10 10-4.477 10-10S17.523 2 12 2zm5.191 6.074a1 1 0 00-1.265-1.265L9.562 8.93a1 1 0 00-.632.632l-2.121 6.364a1 1 0 001.265 1.265l6.364-2.121a1 1 0 00.632-.633l2.121-6.363zM12 13a1 1 0 100-2 1 1 0 000 2z" fill="currentColor"/></svg>
